svg/color/angle.svg

<?xml version="1.0" encoding="UTF-8" ?>
<!DOCTYPE svg PUBLIC "-//W3C//DTD SVG 1.1//EN" "http://www.w3.org/Graphics/SVG/1.1/DTD/svg11.dtd">
<svg width="250pt" height="209pt" viewBox="0 0 250 209" version="1.1" xmlns="http://www.w3.org/2000/svg">
<g id="#ffffffff">
<path fill="#ffffff" opacity="1.00" d=" M 0.00 0.00 L 250.00 0.00 L 250.00 209.00 L 0.00 209.00 L 0.00 0.00 M 122.28 10.16 C 83.25 45.66 44.13 81.09 5.18 116.69 C 9.14 125.26 12.74 134.00 16.59 142.62 C 18.27 145.43 21.12 147.29 23.33 149.65 C 39.00 164.99 54.80 180.18 70.50 195.48 C 88.60 177.90 106.84 160.46 125.02 142.96 C 143.42 159.98 161.78 177.03 180.07 194.16 C 197.69 176.36 215.56 158.79 232.98 140.82 C 236.01 131.89 238.47 122.78 241.56 113.87 C 202.20 79.43 163.04 44.76 123.70 10.32 C 123.35 10.28 122.64 10.20 122.28 10.16 Z" />
<path fill="#ffffff" opacity="1.00" d=" M 124.36 117.32 C 143.86 135.18 163.23 153.20 182.80 170.99 C 181.85 177.87 180.71 184.72 179.53 191.56 C 161.66 174.71 143.48 158.17 125.65 141.28 C 125.55 133.28 124.54 125.32 124.36 117.32 Z" />
<path fill="#ffffff" opacity="1.00" d=" M 8.92 120.39 C 26.38 137.47 44.11 154.28 61.60 171.34 C 62.34 172.12 63.15 172.93 63.43 174.01 C 65.20 179.72 66.96 185.43 68.64 191.17 C 65.10 188.47 62.18 185.10 58.94 182.08 C 45.70 169.29 32.47 156.48 19.32 143.61 C 17.22 141.41 16.53 138.33 15.23 135.67 C 13.17 130.56 10.49 125.68 8.92 120.39 Z" />
</g>
<g id="#2e373cff">
<path fill="#2e373c" opacity="1.00" d=" M 122.28 10.16 C 122.64 10.20 123.35 10.28 123.70 10.32 C 163.04 44.76 202.20 79.43 241.56 113.87 C 238.47 122.78 236.01 131.89 232.98 140.82 C 215.56 158.79 197.69 176.36 180.07 194.16 C 161.78 177.03 143.42 159.98 125.02 142.96 C 106.84 160.46 88.60 177.90 70.50 195.48 C 54.80 180.18 39.00 164.99 23.33 149.65 C 21.12 147.29 18.27 145.43 16.59 142.62 C 12.74 134.00 9.14 125.26 5.18 116.69 C 44.13 81.09 83.25 45.66 122.28 10.16 M 96.31 35.81 L 96.32 36.02 C 86.83 44.11 77.86 52.80 68.57 61.12 C 59.54 68.85 51.07 77.24 42.58 85.56 C 42.56 106.89 42.57 128.21 42.57 149.54 C 49.37 156.93 56.30 164.19 63.48 171.20 C 65.62 169.56 67.66 167.79 69.54 165.86 L 69.44 165.51 C 78.30 157.27 87.21 149.07 95.77 140.54 C 104.60 132.44 113.12 124.01 121.88 115.84 C 122.54 114.97 123.37 114.67 124.38 114.95 C 133.55 123.73 142.87 132.39 152.36 140.84 C 162.68 150.61 173.16 160.24 183.76 169.73 C 185.65 167.66 187.77 165.80 189.61 163.69 C 205.97 148.06 221.48 131.53 237.68 115.73 C 238.62 115.10 239.30 113.73 238.03 113.00 C 221.82 98.92 205.97 84.41 189.68 70.42 C 177.39 59.55 165.15 48.62 152.70 37.92 C 143.56 29.60 134.11 21.55 124.78 13.42 C 124.23 12.81 123.64 12.22 123.03 11.66 C 113.98 19.54 105.34 27.90 96.31 35.81 M 124.36 117.32 C 124.54 125.32 125.55 133.28 125.65 141.28 C 143.48 158.17 161.66 174.71 179.53 191.56 C 180.71 184.72 181.85 177.87 182.80 170.99 C 163.23 153.20 143.86 135.18 124.36 117.32 M 8.92 120.39 C 10.49 125.68 13.17 130.56 15.23 135.67 C 16.53 138.33 17.22 141.41 19.32 143.61 C 32.47 156.48 45.70 169.29 58.94 182.08 C 62.18 185.10 65.10 188.47 68.64 191.17 C 66.96 185.43 65.20 179.72 63.43 174.01 C 63.15 172.93 62.34 172.12 61.60 171.34 C 44.11 154.28 26.38 137.47 8.92 120.39 Z" />
</g>
<g id="#f27979ff">
<path fill="#f27979" opacity="1.00" d=" M 96.31 35.81 C 105.34 27.90 113.98 19.54 123.03 11.66 C 123.64 12.22 124.23 12.81 124.78 13.42 C 124.67 40.96 124.76 68.51 124.73 96.05 C 124.82 102.35 124.72 108.65 124.38 114.95 C 123.37 114.67 122.54 114.97 121.88 115.84 C 113.12 124.01 104.60 132.44 95.77 140.54 C 96.99 134.44 96.49 128.19 96.56 122.01 C 96.40 93.35 96.87 64.68 96.32 36.02 L 96.31 35.81 Z" />
</g>
<g id="#f7a494ff">
<path fill="#f7a494" opacity="1.00" d=" M 124.73 96.05 C 124.76 68.51 124.67 40.96 124.78 13.42 C 134.11 21.55 143.56 29.60 152.70 37.92 C 152.05 72.22 152.73 106.54 152.36 140.84 C 142.87 132.39 133.55 123.73 124.38 114.95 C 124.72 108.65 124.82 102.35 124.73 96.05 Z" />
</g>
<g id="#e75364ff">
<path fill="#e75364" opacity="1.00" d=" M 68.57 61.12 C 77.86 52.80 86.83 44.11 96.32 36.02 C 96.87 64.68 96.40 93.35 96.56 122.01 C 96.49 128.19 96.99 134.44 95.77 140.54 C 87.21 149.07 78.30 157.27 69.44 165.51 C 68.80 163.39 68.36 161.19 68.41 158.97 C 68.60 126.35 68.30 93.73 68.57 61.12 Z" />
</g>
<g id="#f1cdadff">
<path fill="#f1cdad" opacity="1.00" d=" M 152.36 140.84 C 152.73 106.54 152.05 72.22 152.70 37.92 C 165.15 48.62 177.39 59.55 189.68 70.42 C 189.31 101.50 189.46 132.60 189.61 163.69 C 187.77 165.80 185.65 167.66 183.76 169.73 C 173.16 160.24 162.68 150.61 152.36 140.84 Z" />
</g>
<g id="#964150ff">
<path fill="#964150" opacity="1.00" d=" M 42.58 85.56 C 51.07 77.24 59.54 68.85 68.57 61.12 C 68.30 93.73 68.60 126.35 68.41 158.97 C 68.36 161.19 68.80 163.39 69.44 165.51 L 69.54 165.86 C 67.66 167.79 65.62 169.56 63.48 171.20 C 56.30 164.19 49.37 156.93 42.57 149.54 C 42.57 128.21 42.56 106.89 42.58 85.56 Z" />
</g>
<g id="#c0c4a3ff">
<path fill="#c0c4a3" opacity="1.00" d=" M 189.68 70.42 C 205.97 84.41 221.82 98.92 238.03 113.00 C 239.30 113.73 238.62 115.10 237.68 115.73 C 221.48 131.53 205.97 148.06 189.61 163.69 C 189.46 132.60 189.31 101.50 189.68 70.42 Z" />
</g>
</svg>

<?xml version="1.0" encoding="utf-8"?>
<!-- Generator: Adobe Illustrator 26.0.3, SVG Export Plug-In . SVG Version: 6.00 Build 0)  -->
<svg version="1.1" id="Layer_1" xmlns="http://www.w3.org/2000/svg" xmlns:xlink="http://www.w3.org/1999/xlink" x="0px" y="0px"
	 viewBox="0 0 250 209" style="enable-background:new 0 0 250 209;" xml:space="preserve">
<style type="text/css">
	.st0{fill:#FFFFFF;}
	.st1{fill:#2E373C;}
	.st2{fill:#F27979;}
	.st3{fill:#F7A494;}
	.st4{fill:#E75364;}
	.st5{fill:#F1CDAD;}
	.st6{fill:#964150;}
	.st7{fill:#C0C4A3;}
</style>
<g id="_x23_ffffffff">
	<path class="st0" d="M124.4,117.3c19.5,17.9,38.9,35.9,58.4,53.7c-0.9,6.9-2.1,13.7-3.3,20.6c-17.9-16.8-36.1-33.4-53.9-50.3
		C125.6,133.3,124.5,125.3,124.4,117.3z"/>
	<path class="st0" d="M8.9,120.4c17.5,17.1,35.2,33.9,52.7,50.9c0.7,0.8,1.6,1.6,1.8,2.7c1.8,5.7,3.5,11.4,5.2,17.2
		c-3.5-2.7-6.5-6.1-9.7-9.1c-13.2-12.8-26.5-25.6-39.6-38.5c-2.1-2.2-2.8-5.3-4.1-7.9C13.2,130.6,10.5,125.7,8.9,120.4z"/>
</g>
<g id="_x23_2e373cff">
	<path class="st1" d="M122.3,10.2c0.4,0,1.1,0.1,1.4,0.2c39.3,34.4,78.5,69.1,117.9,103.6c-3.1,8.9-5.6,18-8.6,27
		c-17.4,18-35.3,35.5-52.9,53.3C161.8,177,143.4,160,125,143c-18.2,17.5-36.4,34.9-54.5,52.5C54.8,180.2,39,165,23.3,149.6
		c-2.2-2.4-5.1-4.2-6.7-7c-3.9-8.6-7.4-17.4-11.4-25.9C44.1,81.1,83.2,45.7,122.3,10.2 M96.3,35.8l0,0.2
		c-9.5,8.1-18.5,16.8-27.8,25.1c-9,7.7-17.5,16.1-26,24.4c0,21.3,0,42.7,0,64c6.8,7.4,13.7,14.7,20.9,21.7c2.1-1.6,4.2-3.4,6.1-5.3
		l-0.1-0.4c8.9-8.2,17.8-16.4,26.3-25c8.8-8.1,17.4-16.5,26.1-24.7c0.7-0.9,1.5-1.2,2.5-0.9c9.2,8.8,18.5,17.4,28,25.9
		c10.3,9.8,20.8,19.4,31.4,28.9c1.9-2.1,4-3.9,5.9-6c16.4-15.6,31.9-32.2,48.1-48c0.9-0.6,1.6-2,0.4-2.7
		c-16.2-14.1-32.1-28.6-48.4-42.6c-12.3-10.9-24.5-21.8-37-32.5c-9.1-8.3-18.6-16.4-27.9-24.5c-0.5-0.6-1.1-1.2-1.8-1.8
		C114,19.5,105.3,27.9,96.3,35.8 M124.4,117.3c0.2,8,1.2,16,1.3,24c17.8,16.9,36,33.4,53.9,50.3c1.2-6.8,2.3-13.7,3.3-20.6
		C163.2,153.2,143.9,135.2,124.4,117.3 M8.9,120.4c1.6,5.3,4.2,10.2,6.3,15.3c1.3,2.7,2,5.7,4.1,7.9c13.2,12.9,26.4,25.7,39.6,38.5
		c3.2,3,6.2,6.4,9.7,9.1c-1.7-5.7-3.4-11.4-5.2-17.2c-0.3-1.1-1.1-1.9-1.8-2.7C44.1,154.3,26.4,137.5,8.9,120.4z"/>
</g>
<g id="_x23_f27979ff">
	<path class="st2" d="M96.3,35.8c9-7.9,17.7-16.3,26.7-24.2c0.6,0.6,1.2,1.2,1.8,1.8c-0.1,27.5,0,55.1,0,82.6
		c0.1,6.3,0,12.6-0.4,18.9c-1-0.3-1.8,0-2.5,0.9c-8.8,8.2-17.3,16.6-26.1,24.7c1.2-6.1,0.7-12.3,0.8-18.5c-0.2-28.7,0.3-57.3-0.2-86
		L96.3,35.8z"/>
</g>
<g id="_x23_f7a494ff">
	<path class="st3" d="M124.7,96.1c0-27.5-0.1-55.1,0-82.6c9.3,8.1,18.8,16.2,27.9,24.5c-0.6,34.3,0,68.6-0.3,102.9
		c-9.5-8.4-18.8-17.1-28-25.9C124.7,108.7,124.8,102.3,124.7,96.1z"/>
</g>
<g id="_x23_e75364ff">
	<path class="st4" d="M68.6,61.1c9.3-8.3,18.3-17,27.8-25.1c0.6,28.7,0.1,57.3,0.2,86c-0.1,6.2,0.4,12.4-0.8,18.5
		c-8.6,8.5-17.5,16.7-26.3,25c-0.6-2.1-1.1-4.3-1-6.5C68.6,126.3,68.3,93.7,68.6,61.1z"/>
</g>
<g id="_x23_f1cdadff">
	<path class="st5" d="M152.4,140.8c0.4-34.3-0.3-68.6,0.3-102.9c12.4,10.7,24.7,21.6,37,32.5c-0.4,31.1-0.2,62.2-0.1,93.3
		c-1.8,2.1-4,4-5.9,6C173.2,160.2,162.7,150.6,152.4,140.8z"/>
</g>
<g id="_x23_964150ff">
	<path class="st6" d="M42.6,85.6c8.5-8.3,17-16.7,26-24.4c-0.3,32.6,0,65.2-0.2,97.9c-0.1,2.2,0.4,4.4,1,6.5l0.1,0.4
		c-1.9,1.9-3.9,3.7-6.1,5.3c-7.2-7-14.1-14.3-20.9-21.7C42.6,128.2,42.6,106.9,42.6,85.6z"/>
</g>
<g id="_x23_c0c4a3ff">
	<path class="st7" d="M189.7,70.4c16.3,14,32.1,28.5,48.4,42.6c1.3,0.7,0.6,2.1-0.4,2.7c-16.2,15.8-31.7,32.3-48.1,48
		C189.5,132.6,189.3,101.5,189.7,70.4z"/>
</g>
</svg>
